app/assets/images/general/icons/socials/twiter-modal.svg

<svg width="35" height="35" viewBox="0 0 35 35" fill="none" xmlns="http://www.w3.org/2000/svg">
<path d="M17.5 35C27.165 35 35 27.165 35 17.5C35 7.83502 27.165 0 17.5 0C7.83502 0 0 7.83502 0 17.5C0 27.165 7.83502 35 17.5 35Z" fill="#55ACEE"/>
<path d="M28.2202 12.5767C27.4703 12.9092 26.6636 13.1341 25.8176 13.2346C26.6814 12.7171 27.3443 11.8982 27.6572 10.9208C26.8489 11.4003 25.9533 11.7481 25.0009 11.9356C24.2378 11.123 23.1507 10.6151 21.9468 10.6151C19.6371 10.6151 17.7638 12.4884 17.7638 14.7981C17.7638 15.126 17.801 15.4451 17.8727 15.7514C14.3963 15.5771 11.3139 13.9118 9.25062 11.3803C8.89063 11.998 8.68411 12.7171 8.68411 13.4835C8.68411 14.9344 9.42313 16.2153 10.5449 16.9652C9.85956 16.9437 9.21412 16.7556 8.65042 16.4415C8.65011 16.4593 8.65011 16.477 8.65011 16.4945C8.65011 18.5213 10.0926 20.2118 12.0058 20.5958C11.6552 20.6919 11.2849 20.7427 10.904 20.7427C10.6338 20.7427 10.3721 20.7168 10.1169 20.6681C10.6491 22.3296 12.1936 23.5391 14.0245 23.5731C12.5926 24.6952 10.7892 25.3637 8.82886 25.3637C8.49195 25.3637 8.15816 25.344 7.83154 25.305C9.68174 26.4923 11.881 27.1846 14.2431 27.1846C21.9372 27.1846 26.1448 20.8107 26.1448 15.2826C26.1448 15.1013 26.1408 14.9207 26.1326 14.7416C26.9506 14.152 27.6597 13.4155 28.2202 12.5767Z" fill="#F1F2F2"/>
</svg>

<svg width="35" height="35" fill="none" xmlns="http://www.w3.org/2000/svg"><path d="M17.5 35C27.165 35 35 27.165 35 17.5S27.165 0 17.5 0 0 7.835 0 17.5 7.835 35 17.5 35z" fill="#55ACEE"/><path d="M28.22 12.577a8.348 8.348 0 01-2.402.658 4.194 4.194 0 001.84-2.314A8.374 8.374 0 0125 11.936a4.184 4.184 0 00-7.128 3.816A11.874 11.874 0 019.25 11.38a4.183 4.183 0 001.294 5.585 4.154 4.154 0 01-1.895-.523v.052a4.185 4.185 0 003.356 4.102 4.167 4.167 0 01-1.89.072 4.188 4.188 0 003.909 2.905 8.393 8.393 0 01-6.193 1.732 11.832 11.832 0 006.411 1.88c7.694 0 11.902-6.374 11.902-11.902 0-.182-.004-.362-.012-.541a8.48 8.48 0 002.087-2.165z" fill="#F1F2F2"/></svg>
